docs/inc/icons/tasklist.svg

<svg height="16" viewBox="0 0 16 16" width="16" xmlns="http://www.w3.org/2000/svg"><path d="m15.41 9h-7.82c-.59 0-.59-.41-.59-1s0-1 .59-1h7.81c.59 0 .59.41.59 1s0 1-.59 1zm-5.82-5c-.59 0-.59-.41-.59-1s0-1 .59-1h5.81c.59 0 .59.41.59 1s0 1-.59 1zm-9.59-.09 1.41-1.3 1.59 1.59 4.09-4.2 1.41 1.41-5.5 5.5zm7.59 8.09h7.81c.59 0 .59.41.59 1s0 1-.59 1h-7.81c-.59 0-.59-.41-.59-1s0-1 .59-1z" fill-rule="evenodd"/></svg>

<svg xmlns="http://www.w3.org/2000/svg" width="16" height="16" viewBox="0 0 16 16"><path fill-rule="evenodd" d="M15.41 9H7.59C7 9 7 8.59 7 8c0-.59 0-1 .59-1h7.81c.59 0 .59.41.59 1 0 .59 0 1-.59 1h.01zM9.59 4C9 4 9 3.59 9 3c0-.59 0-1 .59-1h5.81c.59 0 .59.41.59 1 0 .59 0 1-.59 1H9.59zM0 3.91l1.41-1.3L3 4.2 7.09 0 8.5 1.41 3 6.91l-3-3zM7.59 12h7.81c.59 0 .59.41.59 1 0 .59 0 1-.59 1H7.59C7 14 7 13.59 7 13c0-.59 0-1 .59-1z"/></svg>
